X: 18525
T: I Have A Bonnet Trimmed With Blue
R: polka
M: 2/4
K: Gmajor
g2 e/f/g/e/|dG B2|de/d/ cA|GA Bd|g2 e/f/g/e/|dG B2|d e/d/ cA|AG G2:|
F/G/A/B/ ce|dB B2|d e/d/ cA|GB BG|F/G/A/B/ ce|dB B2|d e/d/ cA|G2 G:|

